!!!!SEGMENT: pl-sa--400-a-viii-40--004-001_pugnani-gaetano--trio-in-d.krn
!!!cenid: 17xx:2029
!!!COM: Pugnani, Gaetano
!!!COM-rismID: pe30002608
!!!CDT: 1731/11/27-1798/07/15
!!!CNT: Italian
!!!OPR: Trio in D
!!!OTL: [movement 1]
!!!OMV: 001
!!!PDT:
!!!AGN: Secular
!!!SMS-siglum: PL-SA
!!!SMS-shelfmark: 400/A VIII 40
!!!SMS-shelfwork: 004-001 M
!!!SMS-variant:
!!!SMS-altvar:
!!!NIFC-rismSourceID: 1001104664
!!!NIFC-rismChildID: 1001104664
!!!NIFC-islandoraID: none
!!!URL-pdf-islandora:
!!!URL-scan: https://bc.bdsandomierz.pl/dlibra/publication/1703/edition/1671/content @EN{Scan in the Sandomierz Diocese Digital Library} @PL{Skany w portalu Cyfrowa Biblioteka Diecezjalna w Sandomierzu}
!!!IIIF:
!!!ONB-nifc: UWAGA: No 4to, pierwsza część (bez podanego tempa).
!!!AIN: 1 empty 2 violn
!!!key:
**kern	**kern	**dynam	**kern
*part3	*part2	*part2	*part1
*staff3	*staff2	*	*staff1
*Iempty	*Ivioln	*	*Ivioln
*I"Baſso	*I"Violino 2do	*	*I"Violino 1mo
*I'b	*I'vl 2	*	*I'vl 1
*clefF4	*clefG2	*	*clefG2
*k[f#c#]	*k[f#c#]	*	*k[f#c#]
*D:	*D:	*	*D:
*M2/4	*M2/4	*	*M2/4
*>[A,A,B,B]	*>[A,A,B,B]	*	*>[A,A,B,B]
=1	=1	=1	=1
*>A	*>A	*	*>A
!LO:TX:t=P:problem=zgodnie z RISM "b part missing."	!	!	!
!	!LO:TX:a:t=No Allo	!	!
!	!LO:TX:a:t=4to	!	!LO:TX:a:t=No 4to
2ryy	4d/	.	4dd\
!	!	!	!LO:TX:t=P:problem=mixed beam
.	4r	.	8.d/L
.	.	.	16ff#\Jk
=2	=2	=2	=2
.	.	.	8qqff#/
2ryy	4c#/	.	4ee\
.	4r	.	8.a\L
.	.	.	16gg\Jk
=3	=3	=3	=3
*	*	*	*Xtuplet
2ryy	8d/L	.	24ff#\LL
.	.	.	24gg\
.	.	.	24aa\JJ
.	8f#/	.	4dd\
.	8g/	.	.
.	8a/J	.	8cc#\
=4	=4	=4	=4
2ryy	8r	.	8.dd\L
.	8d/L	.	.
.	.	.	16a\Jk
.	8f#/	.	4a\
.	8d/J	.	.
=5	=5	=5	=5
2ryy	8r	.	8.b\L
.	8g/L	.	.
.	.	.	16b\Jk
!	!	!	!LO:TUP:a:problem=klamra łukowa
.	8e/	.	24b\LL
.	.	.	24cc#\
.	.	.	24dd\JJ
!	!	!	!LO:TUP:a:problem=klamra łukowa
.	8g/J	.	24cc#\LL
.	.	.	24dd\
.	.	.	24ee\JJ
=6	=6	=6	=6
2ryy	8f#/L	.	8.dd\L
.	8d/	.	.
.	.	.	16ff#\Jk
.	8c#/	.	16.ee\LL
.	.	.	32gg\K
.	8d/J	.	16.ff#\
.	.	.	32aa\JJk
=7	=7	=7	=7
2ryy	8e/L	.	(16.gg\LL
.	.	.	32ee\K)
.	8c#/	.	(16.a\
.	.	.	32gg\JJk)
.	8d/	.	(16.ff#\LL
.	.	.	32dd\JJk)
.	8c#/J	.	(16.a\LL
.	.	.	32ff#\JJk)
=8	=8	=8	=8
2ryy	4a\	.	8.ee\L
.	.	.	16a\Jk
.	4r	.	16.a/LL
.	.	.	32g/K
.	.	.	16.g/
.	.	.	32f#/JJk
!	!	!	!LO:LB:g=original
=9	=9	=9	=9
2ryy	4dd\	.	4d/
!	!LO:TX:t=P:problem=mixed beam	!	!
.	8.d/L	.	4r
.	16ff#\Jk	.	.
=10	=10	=10	=10
.	8qqff#/	.	.
2ryy	4ee\	.	4c#/
.	8.a\L	.	4r
.	16gg\Jk	.	.
=11	=11	=11	=11
*	*Xtuplet	*	*
!	!LO:TUP:a:problem=klamra łukowa	!	!
2ryy	24ff#\LL	.	8d/L
.	24gg\	.	.
.	24aa\JJ	.	.
.	4dd\	.	8f#/
.	.	.	8g/
.	8cc#t\	.	8a/J
=12	=12	=12	=12
2ryy	8.dd\L	.	8r
.	.	.	8d/L
.	16a\Jk	.	.
.	4a\	.	8f#/
.	.	.	8d/J
=13	=13	=13	=13
2ryy	8.b\L	.	8r
.	.	.	8g/L
.	16b\Jk	.	.
!	!LO:TUP:a:problem=klamra łukowa	!	!
.	24b\LL	.	8e/
.	24cc#\	.	.
.	24dd\JJ	.	.
!	!LO:TUP:a:problem=klamra łukowa	!	!
.	24cc#\LL	.	8g/J
.	24dd\	.	.
.	24ee\JJ	.	.
!	!LO:LB:g=original	!	!
=14	=14	=14	=14
.	8qqee/	.	.
2ryy	8.dd\L	.	8f#/L
.	.	.	8d/
.	16ff#\Jk	.	.
.	(16.ee\LL	.	8c#/
.	32gg\K)	.	.
.	(16.ff#\	.	8d/J
.	32aa\JJk)	.	.
=15	=15	=15	=15
!	!LO:N:vis=8.	!	!
2ryy	16.gg\LL	.	8e/L
!	!LO:N:vis=16	!	!
.	32ee\JJk	.	.
.	16.a\LL	.	8c#/
.	32gg\JJk	.	.
.	16.ff#\LL	.	8d/
.	32dd\JJk	.	.
.	16.a\LL	.	8d/J
.	32ff#\JJk	.	.
=16	=16	=16	=16
*	*^	*	*
2ryy	4ee/	4a\	.	8a\
.	.	.	.	4aa\
.	4cc#/	4a\	.	.
.	.	.	.	(16.ee\LL
.	.	.	.	32gg\JJk)
*	*v	*v	*	*
=17	=17	=17	=17
!	!LO:TX:t=P:problem=mixed beam	!	!
.	.	.	8qqgg/
*	*	*	*2\right
2ryy	8dd\L	.	2ff#\
.	16.d/L	.	.
!	!LO:N:vis=16	!	!
.	32c#/JJk	.	.
.	16.d/LL	.	.
.	32e/K	.	.
.	16.f#/	.	.
.	32g#X/JJk	.	.
=18	=18	=18	=18
2ryy	8a/	.	4ee\
.	4aa\	.	.
.	.	.	4cc#t\
.	16ee\LL	.	.
!	!LO:SIC:v:s=16ggnX\JJ	!	!
.	16gg#X\JJ	.	.
=19	=19	=19	=19
*	*2\right	*	*
!	!	!	!LO:TX:t=P:problem=mixed beam
2ryy	2ff#\	.	8dd\L
.	.	.	16.d/L
.	.	.	32c#X/JJk
.	.	.	16.d/LL
.	.	.	32e/K
!	!	!	!LO:N:vis=16
.	.	.	16.f#/
.	.	.	32g#X/JJk
=20	=20	=20	=20
2ryy	8ee\L	.	4a\
.	8a\	.	.
.	8cc#\	.	4ee\
.	8a\J	.	.
=21	=21	=21	=21
2ryy	8b/L	.	32dd\LLL
.	.	.	32cc#\J
.	.	.	16b\JJ
!	!	!	!LO:TX:t=P:problem=mixed beam
.	8g#X/	.	16.e/LL
.	.	.	32dd\JJk
!	!	!	!LO:LB:g=original
=-	=-	=-	=-
.	8a/	.	32cc#\LLL
.	.	.	32b\J
.	.	.	16a\JJ
.	8A/J	.	16.aa\LL
.	.	.	32cc#\JJk
=22	=22	=22	=22
2ryy	4e/	.	8b/L
.	.	.	8e/
.	4ee\	.	8cc#/
.	.	.	8a/J
=23	=23	=23	=23
2ryy	24dd\LL	.	8b/L
.	24cc#\	.	.
.	24b\JJ	.	.
!	!LO:TX:t=P:problem=mixed beam	!	!
.	16.e/LL	.	8g#X/
.	32dd\JJk	.	.
.	24cc#\LL	.	8a/
.	24b\	.	.
.	24a\JJ	.	.
.	16.aa\LL	.	8A/J
.	32cc#\JJk	.	.
=24	=24	=24	=24
!	!	!	!LO:TX:t=P:problem=mixed beam
2ryy	8b/L	.	8.e/L
.	8e/ 8b	.	.
.	.	.	16gg#X\Jk
!	!	!LO:DY:a:t=p&colon;	!
.	8e/ 8b	p	24gg#\LL
.	.	.	24aa\
.	.	.	24bb\JJ
.	8e/J 8b	.	24gg#\LL
.	.	.	24aa\
.	.	.	24bb\JJ
!	!LO:LB:g=original	!	!
=25	=25	=25	=25
2ryy	8c#/L 8e	.	8aa\L
.	8c#/ 8e	.	16r
.	.	.	16aa\Jk
.	8c#/ 8e	.	24aa\LL
.	.	.	24bb\
.	.	.	24ccc#\JJ
.	8c#/J 8e	.	24aa\LL
.	.	.	24bb\
.	.	.	24ccc#\JJ
=26	=26	=26	=26
.	.	.	8qqccc#/
*	*	*	*^
2ryy	8G#X/L	.	8bb\L	8ryy
.	8G#/	.	16r	16ryy
.	.	.	16b\Jk	16ryy
.	8G#/	.	24b/LL	8e\L
.	.	.	24cc#/	.
.	.	.	24dd/JJ	.
.	8G#/J	.	24b/LL	8e\J
.	.	.	24cc#/	.
.	.	.	24dd/JJ	.
*	*	*	*v	*v
=27	=27	=27	=27
*	*	*	*tuplet
!	!	!	!LO:TUP:a
2ryy	8A/	.	24cc#\LL
.	.	.	24a\
.	.	.	24b\
.	8r	.	24cc#\
.	.	.	24dd\
.	.	.	24ee\JJ
*	*	*	*Xtuplet
!	!	!	!LO:TUP:a:problem=klamra łukowa
.	8A/	.	24dd\LL
.	.	.	24b\
.	.	.	24cc#\
.	8r	.	24dd\
.	.	.	24ee\
.	.	.	24ff#\JJ
=28	=28	=28	=28
2ryy	8c#/	.	24ee\LL
.	.	.	24cc#\
.	.	.	24dd\
.	8r	.	24ee\
.	.	.	24ff#\
.	.	.	24ggn\JJ
!	!	!	!LO:TUP:a:problem=klamra łukowa
.	8d/	.	24ff#\LL
.	.	.	24ee\
.	.	.	24dd\
.	8r	.	24cc#\
.	.	.	24b\
.	.	.	24a\JJ
!	!	!	!LO:LB:g=original
=29	=29	=29	=29
!	!LO:TX:t=P:problem=mixed beam	!	!
2ryy	24e|</LL	.	4e/ 4b 4gg#X
.	(24dd\	.	.
.	24cc#\	.	.
.	24b\	.	.
.	24cc#\	.	.
.	24dd\JJ)	.	.
!	!LO:TX:t=P:problem=mixed beam	!	!
.	24e|</LL	.	8r
.	(24dd\	.	.
.	24cc#\	.	.
.	24b\	.	8gg#X\
.	24cc#\	.	.
.	24dd\JJ)	.	.
=30	=30	=30	=30
2ryy	24cc#|>\LL	.	8aa\L
.	(24ee\	.	.
.	24dd\	.	.
.	24cc#\	.	8ee\
.	24dd\	.	.
.	24ee\JJ)	.	.
.	24cc#|>\LL	.	8cc#\
.	(24ee\	.	.
.	24dd\	.	.
.	24cc#\	.	8a\J
.	24dd\	.	.
.	24ee\JJ)	.	.
=31	=31	=31	=31
!	!LO:TX:t=P:problem=mixed beam	!	!
2ryy	24e|</LL	.	4e/ 4b 4gg#X
.	(24dd\	.	.
.	24cc#\	.	.
.	24b\	.	.
.	24cc#\	.	.
.	24dd\JJ)	.	.
!	!LO:TX:t=P:problem=mixed beam	!	!
.	24e|</LL	.	8r
.	(24dd\	.	.
.	24cc#\	.	.
.	24b\	.	8gg#\
.	24cc#\	.	.
.	24dd\JJ)	.	.
=32	=32	=32	=32
2ryy	24cc#|>\LL	.	(8aa\L
.	(24ee\	.	.
.	24dd\	.	.
.	24cc#\	.	8ee\)
.	24dd\	.	.
.	24ee\JJ)	.	.
.	24cc#|>\LL	.	(8cc#\
.	(24ee\	.	.
.	24dd\	.	.
.	24cc#\	.	8a\J)
.	24dd\	.	.
.	24ee\JJ)	.	.
!	!LO:LB:g=original	!	!
=33	=33	=33	=33
2ryy	8dd\L	.	8.ff#\L
.	8b\	.	.
.	.	.	16bb\Jk
.	.	.	8qqaa/
.	8ee\	.	4gg#X\
.	8dd\J	.	.
=34	=34	=34	=34
2ryy	8cc#\L	.	8.aa\L
.	8ff#\	.	.
.	.	.	16gg#X\Jk
.	8ee\	.	(16.aa\LL
.	.	.	32gg#\K)
.	8dd\J	.	(16.aa\
.	.	.	32gg#\JJk)
=35	=35	=35	=35
2ryy	8cc#\L	.	8.aa\L
.	8dd\	.	.
.	.	.	16gg#X\Jk
.	8cc#\	.	(16.aa\LL
.	.	.	32gg#\K)
.	8b\J	.	(16.aa\
.	.	.	32gg#\JJk)
=36	=36	=36	=36
2ryy	16.cc#\LL	.	16.aa\LL
.	32aa\K	.	32ccc#\K
.	16.gg#X\	.	16.bb\
.	32ff#\JJk	.	32aa\JJk
.	16.ee\LL	.	16.gg#X\LL
.	32dd\K	.	32ff#\K
.	16.cc#\	.	16.ee\
.	32b\JJk	.	32dd\JJk
=37	=37	=37	=37
!	!	!	!LO:N:vis=8.
2ryy	8a/	.	8cc#\L
.	4a/	.	16a\L
.	.	.	16b\JJ
.	.	.	4bT\
.	8g#X/	.	.
=38	=38	=38	=38
2ryy	8a/L	.	8a\
.	8c#/	.	(16ee\LL
.	.	.	32dd\L
.	.	.	32ee\JJJ)
.	8d/	.	8ff#\
.	8e/J	.	16gg#X\LL
.	.	.	32ff#\L
.	.	.	32gg#\JJJ
!	!	!	!LO:PB:g=original
=39	=39	=39	=39
2ryy	8f#/L	.	8aa\
.	.	.	8qqff#/
.	8c#/	.	16ee\LL
.	.	.	(32dd\L
.	.	.	32ee\JJJ)
.	8d/	.	8ff#\
!	!	!	!LO:N:vis=16.
.	.	.	8qa/
.	8e/J	.	16g#X/LL
.	.	.	32f#/L
.	.	.	32g#/JJJ
=40	=40	=40	=40
2ryy	4A/	.	4A/ 4e 4a
.	4r	.	4r
=41:|!|:	=41:|!|:;	=41:|!|:	=41:|!|:;
*>B	*>B	*	*>B
2ryy	8r	.	4ee\
.	8a\L	.	.
!	!	!	!LO:TX:t=P:problem=mixed beam
.	8cc#\	.	16a/LL
.	.	.	16aa\
.	8a\J	.	16gg#X\
.	.	.	16ff#\JJ
=42	=42	=42	=42
2ryy	8g#X/L	.	4ee\
.	8e/	.	.
.	8f#/	.	4ddT\
.	8g#/J	.	.
=43	=43	=43	=43
*	*^	*	*
2ryy	4ee/	4a\	.	8cc#\L
.	.	.	.	8a\
.	8a\	8ryy	.	8cc#\
!	!LO:TUP:a:problem=klamra łukowa	!	!	!
.	24aa\LL	24ryy	.	8a\J
.	24gg#X\	24ryy	.	.
.	24ff#\JJ	24ryy	.	.
*	*v	*v	*	*
=44	=44	=44	=44
2ryy	4ee\	.	8g#X/L
.	.	.	8e/
.	4dd\	.	8f#/
.	.	.	8g#/J
=45	=45	=45	=45
*	*^	*	*
2ryy	8cc#/L	8ryy	.	4a/
.	8cc#/	8a\L	.	.
.	8cc#/	8a\	.	4ggn\
.	8cc#/J	8a\J	.	.
=46	=46	=46	=46	=46
2ryy	8cc#/L	8a\L	.	(16gg\LL
.	.	.	.	16ee\)
.	8cc#/	8a\	.	(16ff#\
.	.	.	.	16gg\JJ)
.	8cc#/	8a\	.	16gg\LL
.	.	.	.	16ff#\
.	8cc#/J	8a\J	.	16ff#\
.	.	.	.	16ee\JJ
!	!LO:LB:g=original	!LO:LB:g=original	!	!
=47	=47	=47	=47	=47
2ryy	8dd/L	8a\L	.	[4ff#\
.	8dd/	8a\	.	.
.	8dd/	8a\	.	4ff#\]
.	8dd/J	8a\J	.	.
=48	=48	=48	=48	=48
*	*tremolo	*tremolo	*	*
2ryy	8dd/L	8a\L	.	16ff#\LL
.	.	.	.	16dd\
.	8dd/	8a\	.	16ee\
.	.	.	.	16ff#\JJ
.	8dd/	8a\	.	16ff#\LL
.	.	.	.	16ee\
.	8dd/J	8a\J	.	16ee\
.	.	.	.	16dd#X\JJ
!	!	!	!	!LO:LB:g=original
=49	=49	=49	=49	=49
.	.	.	.	8qqff#/
2ryy	8cc#/L	8a\L	.	4ee\
.	8cc#/	8a\	.	.
.	8cc#/	8a\	.	4ee\
.	8cc#/J	8a\J	.	.
=50	=50	=50	=50	=50
2ryy	8cc#/L	8a#X\L	.	16ee\LL
.	.	.	.	16cc#\
.	8cc#/	8a#\	.	16dd\
.	.	.	.	16ee\JJ
.	8cc#/	8a#\	.	16ee\LL
.	.	.	.	16dd\
.	8cc#/J	8a#\J	.	16dd\
.	.	.	.	16cc#\JJ
*	*v	*v	*	*
=51	=51	=51	=51
2ryy	8b\L	.	24dd\LL
.	.	.	24cc#\
.	.	.	24b\JJ
.	8b\	.	4bb\
.	8b\	.	.
.	8b\J	.	[8bb\
=52	=52	=52	=52
2ryy	8b\L	.	8bb\L]
.	8b\	.	8aa\J
.	.	.	8qqaa/
.	8b\	.	8gg#X\L
.	8b\J	.	8ff#\J
=53	=53	=53	=53
.	.	.	8qqff#/
!	!	!	!LO:N:vis=4
2ryy	8cc#\L	.	8ee#X\
!	!	!	!LO:N:vis=4
.	8cc#\	.	8ee#\
!	!	!	!LO:TUP:a:problem=klamra łukowa
.	8cc#\	.	24ee#\LL
.	.	.	24gg#X\
.	.	.	24ff#\
.	8cc#\J	.	24ee#\
.	.	.	24ff#\
.	.	.	24gg#\JJ
*	*Xtremolo	*	*
=54	=54	=54	=54
2ryy	8a/L	.	24ff#\LL
.	.	.	24aa\
.	.	.	24gg\
.	8a/	.	24ff#\
.	.	.	24gg\
.	.	.	24aa\JJ
.	8e#X/	.	24gg#X\LL
.	.	.	24bb\
.	.	.	24aa\
.	8e#/J	.	24gg#\
.	.	.	24aa\
.	.	.	24bb\JJ
=55	=55	=55	=55
2ryy	8f#/L	.	8.aa\L
.	8f#/	.	.
.	.	.	16bb\Jk
!	!	!	!LO:TUP:a:problem=klamra łukowa
.	8a/	.	24ccc#\LL
.	.	.	24bb\
.	.	.	24aa\
.	8a/J	.	24gg\
.	.	.	24ff#\
.	.	.	24ee\JJ
=56	=56	=56	=56
*	*tremolo	*	*
.	.	.	8qqee/
2ryy	8b\L	.	4dd#X\
.	8b\	.	.
!	!	!	!LO:TUP:a:problem=klamra łukowa
.	8b\	.	24dd#\LL
.	.	.	24ff#\
.	.	.	24ee\
.	8b\J	.	24dd#\
.	.	.	24ee\
.	.	.	24ff#\JJ
*	*Xtremolo	*	*
=57	=57	=57	=57
2ryy	8gn/L	.	24ee\LL
.	.	.	24ggn\
.	.	.	24ff#\
.	8g/	.	24ee\
.	.	.	24ff#\
.	.	.	24gg\JJ
!	!	!	!LO:LB:g=original
=-	=-	=-	=-
!	!	!	!LO:TUP:a:problem=klamra łukowa
.	8d#X/	.	24ff#\LL
.	.	.	24aa\
.	.	.	24gg\
.	8d#/J	.	24ff#\
.	.	.	24gg\
.	.	.	24aa\JJ
=58	=58	=58	=58
2ryy	8e/L	.	8.gg\L
.	8e/	.	.
.	.	.	16aa\Jk
!	!	!	!LO:LB:g=original
.	8g/	.	24bb\LL
.	.	.	24aa\
.	.	.	24gg\
.	8g/J	.	24ff#\
.	.	.	24ee\
.	.	.	24dd\JJ
=59	=59	=59	=59
!	!	!	!LO:LB:g=original
2ryy	8a/L	.	24cc#\LL
.	.	.	24dd\
.	.	.	24ee\JJ
.	8a/	.	8a/
!	!	!	!LO:LB:g=original
.	8f#/	.	24dd\LL
.	.	.	24ee\
.	.	.	24ff#\JJ
.	8f#/J	.	8a|</
=60	=60	=60	=60
!	!	!	!LO:LB:g=original
2ryy	8c#/L	.	24ee\LL
.	.	.	24ff#\
.	.	.	24gg\JJ
.	8c#/	.	16.a\LL
.	.	.	32gg\JJk
*	*	*	*tuplet
!	!	!	!LO:TUP:a
.	8d/	.	24ff#\LL
.	.	.	24aa\
.	.	.	24gg\
.	8d/J	.	24ff#\
.	.	.	24ee\
.	.	.	24dd\JJ
=61	=61	=61	=61
*	*	*	*Xtuplet
2ryy	8a/L	.	24cc#\LL
.	.	.	24dd\
.	.	.	24ee\JJ
.	8a/	.	16.a/LL
.	.	.	32a/JJk
!	!	!	!LO:TUP:a:problem=klamra łukowa
.	8f#/	.	24dd\LL
.	.	.	24ee\
.	.	.	24ff#\JJ
.	8f#/J	.	16.a/LL
.	.	.	32a/JJk
=62	=62	=62	=62
!	!	!	!LO:TUP:a:problem=klamra łukowa
2ryy	8c#/L	.	24ee\LL
.	.	.	24ff#\
.	.	.	24gg\JJ
!	!	!	!LO:TX:t=P:problem=mixed beam
.	8c#/	.	16.a/LL
.	.	.	32gg\JJk
!	!	!	!LO:TUP:a:problem=klamra łukowa
.	8d/	.	24ff#\LL
.	.	.	24aa\
.	.	.	24gg\
.	8d/J	.	24ff#\
.	.	.	24ee\
.	.	.	24dd\JJ
!	!LO:LB:g=original	!	!
=63	=63	=63	=63
!	!	!	!LO:TUP:a:problem=klamra łukowa
2ryy	4A/	.	24cc#\LL
.	.	.	24b\
.	.	.	24a\JJ
.	.	.	16.e/LL
.	.	.	32c#/JJk
.	16.a/LL	.	8A/
.	32g/K	.	.
.	16.f#/	.	8r
.	32e/JJk	.	.
!	!	!	!LO:LB:g=original
=64	=64	=64	=64
2ryy	4d/	.	4dd\
!	!	!	!LO:TX:t=P:problem=mixed beam
.	4r	.	8.d/L
.	.	.	16dd\Jk
=65	=65	=65	=65
.	.	.	8qqff#/
2ryy	4c#/	.	4ee\
.	4r	.	8.a\L
.	.	.	16gg\Jk
=66	=66	=66	=66
!	!	!	!LO:TUP:a:problem=klamra łukowa
2ryy	8d/L	.	24ff#\LL
.	.	.	24gg\
.	.	.	24aa\JJ
.	8f#/	.	4dd\
.	8g/	.	.
.	8a/J	.	8cc#\
=67	=67	=67	=67
2ryy	4dd\	.	4dd\
.	8.d/L	.	4r
.	16ff#\Jk	.	.
=68	=68	=68	=68
.	8qqff#/	.	.
2ryy	4ee\	.	4c#/
.	16.a\LL	.	4r
!	!LO:TX:t=P:problem=zbędna kreska taktowa	!	!
.	32gg\JJk	.	.
!	!LO:TUP:a:problem=klamra łukowa	!	!
.	24ff#\LL	.	.
.	24gg\	.	.
.	24aa\JJ	.	.
=69	=69	=69	=69
2ryy	4.dd\	.	8d/L
.	.	.	8f#/
.	.	.	8g/
.	8cc#\	.	8a/J
=70	=70	=70	=70
.	8qqcc#/	.	.
2ryy	4dd\	.	8f#/L
.	.	.	8d/J
!	!LO:TUP:a:problem=klamra łukowa	!	!
.	24ff#\LL	.	24aa\LL
.	24gg\	.	24bb\
.	24aa\JJ	.	24cccn\JJ
!	!LO:TUP:a:problem=klamra łukowa	!	!LO:TUP:a:problem=klamra łukowa
.	24aa\LL	.	24ccc\LL
.	24gg\	.	24bb\
.	24ff#\JJ	.	24aa\JJ
=71	=71	=71	=71
.	8qqff#/	.	8qqaa/
2ryy	4gg\	.	4bb\
!	!LO:TUP:a:problem=klamra łukowa	!	!
.	24ee\LL	.	24gg\LL
.	24ff#\	.	24aa\
.	24gg\JJ	.	24bb\JJ
!	!LO:TUP:a:problem=klamra łukowa	!	!
.	24gg\LL	.	24bb\LL
.	24ff#\	.	24aa\
.	24ee\JJ	.	24gg\JJ
=72	=72	=72	=72
.	8qqee/	.	8qqgg/
2ryy	4ff#/	.	4aa\
!	!LO:TUP:a:problem=klamra łukowa	!	!LO:TUP:a:problem=klamra łukowa
.	24dd\LL	.	24ff#\LL
.	24ee\	.	24gg\
.	24ff#\JJ	.	24aa\JJ
!	!LO:TUP:a:problem=klamra łukowa	!	!LO:TUP:a:problem=klamra łukowa
.	24ff#\LL	.	24aa\LL
.	24ee\	.	24gg\
.	24dd\JJ	.	24ff#\JJ
=73	=73	=73	=73
!	!LO:TUP:a:problem=klamra łukowa	!	!LO:TUP:a:problem=klamra łukowa
2ryy	24cc#X\LL	.	24ee\LL
.	24dd\	.	24ff#\
.	24ee\JJ	.	24gg\JJ
!	!LO:TUP:a:problem=klamra łukowa	!	!LO:TUP:a:problem=klamra łukowa
.	24ee\LL	.	24gg\LL
.	24dd\	.	24ff#\
.	24cc#\JJ	.	24ee\JJ
!	!LO:TX:t=P:problem=mixed beam	!	!
.	8dd\L	.	24dd\LL
.	.	.	24ee\
.	.	.	24ff#\JJ
!	!	!	!LO:TUP:a:problem=klamra łukowa
.	8d/J	.	24ff#\LL
.	.	.	24ee\
.	.	.	24dd\JJ
!	!LO:LB:g=original	!	!
=74	=74	=74	=74
2ryy	24A|</LL	.	4A/ 4e 4cc#
.	(24g/	.	.
.	24f#/	.	.
.	24e/	.	.
.	24f#/	.	.
!	!LO:TX:t=P:problem=zbędna kreska taktowa	!	!
.	24g/JJ)	.	.
.	24A|</LL	.	8r
.	(24g/	.	.
.	24f#/	.	.
.	24e/	.	8cc#\
.	24f#/	.	.
.	24g/JJ)	.	.
!	!	!	!LO:LB:g=original
=75	=75	=75	=75
2ryy	24f#|</LL	.	8dd/L
.	(24a/	.	.
.	24g/	.	.
.	24f#/	.	8a/
.	24g/	.	.
.	24a/JJ)	.	.
.	24d|</LL	.	8f#/
.	(24a/	.	.
.	24g/	.	.
.	24f#/	.	8d/J
.	24g/	.	.
.	24a/JJ)	.	.
=76	=76	=76	=76
2ryy	24A|</LL	.	4A/ 4e 4cc#
.	(24g/	.	.
.	24f#/	.	.
.	24e/	.	.
.	24f#/	.	.
.	24g/JJ)	.	.
.	24A|</LL	.	8r
.	(24g/	.	.
.	24f#/	.	.
.	24e/	.	8cc#\
.	24f#/	.	.
.	24g/JJ)	.	.
=77	=77	=77	=77
2ryy	24f#|</LL	.	8dd/L
.	(24a/	.	.
.	24g/	.	.
.	24f#/	.	8a/
.	24g/	.	.
.	24a/JJ)	.	.
.	24d|</LL	.	8f#/
.	(24a/	.	.
.	24g/	.	.
.	24f#/	.	8d/J
.	24g/	.	.
.	24a/JJ)	.	.
=78	=78	=78	=78
2ryy	8g/L	.	8.b\L
.	8e/	.	.
.	.	.	16ee\Jk
.	.	.	8qqdd/
.	8a/	.	4cc#t\
.	8g/J	.	.
=79	=79	=79	=79
.	.	.	8qqcc#/
2ryy	8f#/L	.	8.dd\L
.	8b/	.	.
.	.	.	16cc#\Jk
.	.	.	8qqee/
.	8a/	.	16.b\LL 16.dd
.	.	.	32cc#\K
.	.	.	8qqee/
.	8g/J	.	16.dd\
.	.	.	32cc#\JJk
=80	=80	=80	=80
.	.	.	8qqcc#/
2ryy	8f#/L	.	8.dd\L
.	8g/	.	.
.	.	.	16cc#\Jk
.	8f#/	.	16.dd\LL
.	.	.	32cc#\K
.	.	.	8qee/
.	8e/J	.	16.dd\
.	.	.	32cc#\JJk
=81	=81	=81	=81
2ryy	16.f#\LL	.	16.dd\LL
.	32dd\K	.	32ff#\K
.	16.cc#\	.	16.ee\
.	32b\JJk	.	32dd\JJk
.	16.a/LL	.	16.cc#\LL
.	32g/K	.	32b\K
.	16.f#/	.	16.a\
.	32e/JJk	.	32g\JJk
!	!LO:LB:g=original	!	!
=82	=82	=82	=82
!	!	!	!LO:N:vis=8.
2ryy	8d/	.	8f#/L
.	4d/	.	16d/L
.	.	.	16e/JJ
.	.	.	4eT/
.	8c#/	.	.
=83	=83	=83	=83
2ryy	8d/L	.	8d/
.	.	.	8qb/
.	8f#/	.	16a\LL
.	.	.	32g\L
.	.	.	32a\JJJ
.	8g/	.	8b\
.	.	.	8qqdd/
.	8a/J	.	(16cc#\LL
.	.	.	32b\L
.	.	.	32cc#\JJJ)
=84	=84	=84	=84
2ryy	8b/L	.	8dd|>\
.	.	.	8qb/
.	8f#/	.	16a\LL
.	.	.	32g\L
.	.	.	32a\JJJ
.	8G/	.	8b\
.	.	.	8qqd/
.	8A/J	.	16c#/LL
.	.	.	32B/L
.	.	.	32c#/JJJ
!	!	!	!LO:LB:g=original
=85	=85	=85	=85
2ryy	4d/ 4a 4ff#	.	4d/ 4a 4ff#
.	4r	.	4r
=	=:|!;	=	=:|!;
*-	*-	*-	*-
!!!system-decoration: [(s1,s2,s3)]
!!!RDF**kern: < = below
!!!RDF**kern: > = above
!!!RDF**kern: | = vertical stroke
!!!ENC: Krzysztof Stępień
!!!END: 2021-05-27
!!!ENC: Marta Chmielewska
!!!END: 2021-10-28
!!!YEC: Copyright 2022 Narodowy Instytut Fryderyka Chopina (https://polishscores.org)
!!!YEM: License CC-BY-4.0 (https://creativecommons.org/licenses/by/4.0)
